X:1
T:Polska
T:efter Carl Malmberg (SvL Skne 166)
C:Carl Gabriel Malmberg
R:Polska
Z:Patrik Mnsson, 2008-10-23 
O:Trolle-Ljungby, Skne
S:Svenska Ltar
N: Svenska Ltar Skne 166
M:3/4
L:1/16
K:A
|: AB | c2ce d2df e2eg | f2fa g2gb a4 | dcdf cBce EGBc |
cdfe dcBA AGFE | cAce dBdf eceg | fdfa gegb a4 |
cdfd dcec EGBd | cBAG B4 A2 :: AB | c2A,2 A,2c2 cedc |
d2B,2 B,2d2 dfed | cABc defg agfe | ^defe =dcBA AGFE |
c2A,2 A,2c2 cedc | d2B,2 B,2d2 dfed | cABc defg aefd | cBAG B4 A2 :|
